X:1
T:Hear Us, O People, Hear Our Plea
T:Tune: Ralph Harrison, 1784 Text under copyright; for copyrighted material see Psalter Hymnal 191
T:LM WARRINGTON www.hymnary.org/text/hear_us_o_people_hear_our_plea
T:Hear Us, O People, Hear Our Plea
T:This tune is in the public domain. You may freely use this score for personal and congregational worship. If you reproduce the score, please credit Hymnary.org as the source. 
T:This tune is in the public domain. You may freely use this score for personal and congregational worship. If you reproduce the score, please credit Hymnary.org as the source. 
Z:This tune is in the public domain. You may freely use this score for personal and congregational worship. If you reproduce the score, please credit Hymnary.org as the source.
%%score ( 1 2 ) ( 3 4 )
L:1/8
M:6/4
K:Ab
V:1 treble nm="SOPRANO ALTO" snm="S. A."
V:2 treble 
V:3 bass nm="TENOR BASS" snm="T. B."
V:4 bass 
V:1
 E2 E2 D2 (C2 E2) A2 | (A2 B2) G2 A4 c2 | B4 B2 | c4 BA | G4 F2 E6 | A2 A2 E2 (F2 G2) A2 | %6
 (d3 c) BA |1 (A2 G2) F2 | E4 D2 (C2 E2) A2 | (A2 B2) G2 A6 |] %10
V:2
 C2 A,2 B,2 C4 C2 | D4 B,2 C4 E2 | E4 E2 | E4 E2 | E4 =D2 B,6 | C2 E2 C2 (D2 E2) E2 | (D3 E) D2 |1 %7
 (C2 B,2) B,2 | (C2 A,2) G,2 A,4 C2 | D4 B,2 C6 |] %10
V:3
 A,2 E,2 F,G, A,4 A,2 | F,4 E,2 E,4 A,2 | (G,2 A,2) B,2 | A,4 B,C | B,4 A,2 G,6 | %5
 E,2 E,2 A,2 (A,2 B,2) A,2 | (F,3 A,) F,2 |1 E,4 F,G, | (A,2 E,2) E,2 (E,2 A,2) A,2 | %9
 F,4 E,2 E,6 |] %10
V:4
 A,,2 C,2 B,,2 (A,,2 C,2) F,2 | (D,2 B,,2) E,2 A,,4 A,,2 | (E,2 F,2) G,2 | A,4 G,A, | %4
 B,4 B,,2 E,6 | A,,2 C,2 A,,2 D,4 C,2 | (B,,3 C,) D,2 |1 E,4 D,2 | C,4 B,,2 (A,,2 C,2) F,2 | %9
 (D,2 B,,2) E,2 A,,6 |] %10

